!!!OTL:  69. Der Matros und sein Lieb.
!!!ODT: 1863
!!!ARE: Europa, Mitteleuropa, Deutschland, Helgoland
!!!SCT: E0069A
!!!TXL: @@DE
!!!YEM: Copyright 1995, estate of Helmut Schaffrath.
**kern	**text
*ICvox	*
*M6/8	*
*k[b-]	*
*F:	*
!LO:TX:a:t=Mäßig bewetg.	!
!LO:TX:a:t=Aus Helgoland, von einem Oſtfrieſen. 1863.	!
{8c	Es
=1	=1
8f	gieng
8f	ein
8a	Ma-
8cc	-tro-
8a	-ſe
8f	wohl
=2	=2
4e	über
8g	den
8b-L	Rhein,
8gJ}	.
{8e	und
=3	=3
8f	ſchau-
8a	-et
8cc	ins
8ccL	tie-
8b-J	.
8a	-fe
=4	=4
4.g	Thal.
4r}	.
{8cc	Was
=5	=5
8ccL	ſah
8b-J	.
8dd	er
8ffL	in
8eeJ	.
8dd	der
=6	=6
8ccL	Fer-
8aJ	.
8ff	-ne
4cc}	ſtehn?
{8ff	ein
=7	=7
8eeL	wun-
8ddJ	.
8cc	-der-
8b-L	-ſchö-
8aJ	.
8g	-ne
=8	=8
4.f	Dam.
4r}	.
==	==
!!!AGN: erzaehlendes Volks - Lied, Sage, Liebe, Ballade ?
!!!ONB: ESAC (Essen Associative Code) Database: ERK1
!!!AMT: compound duple
!!!AIN: vox
!!!EED: Helmut Schaffrath
!!!EEV: 1.0
!!!GTL: Liebesgeschichten mit gluecklichem Ausgange
!!!URL-scan: https://rosdok.uni-rostock.de/mcrviewer/recordIdentifier/rosdok_ppn745146120/iview2/phys_0310.iview2?x=-495.6391625615772&y=2059.121902644867&scale=0.46294184720638515&rotation=0&layout=singlePageLayout&logicalDiv=log_0009
!!!ENC: Anna Maria Matuszewska
!!!EEV: 2024/11/26
*-	*-
